X: 31024
T: Paddy Burke's
R: jig
M: 6/8
K: Eminor
BAB E2E|BAB d2B|BAF D2E|FED FGA|
BAB E2E|BAB def|edB AFA|BEE E3|
Bee edB|def a2f|ege d2B|BAB dBA|
Bee edB|def afd|edB AFA|BEE E3|

